Hanger/Eagle Smoke Strike.svg

<svg xmlns="http://www.w3.org/2000/svg" xmlns:xlink="http://www.w3.org/1999/xlink" viewBox="0 0 126 126">
  <defs>
    <style>
      .cls-1 {
        fill: #de7b6c;
      }

      .cls-1, .cls-2 {
        fill-rule: evenodd;
      }

      .cls-2 {
        fill: #fff;
      }
    </style>
  </defs>
  <path class="cls-1" d="M51,32s-7.321-1.474-11.735,2.924L47,10l7,7v6.459C52.1,25.092,50.765,27.734,51,32ZM36,45s-9.12-.219-12.639,10H16L9,47l27.692-7.639A17.955,17.955,0,0,0,36,45Z"/>
  <path id="Shape_24_copy_2" data-name="Shape 24 copy 2" class="cls-1" d="M86,32s1.445-11.582-12-11l-0.155-.065L78,10,95,20V33.055C93.232,32.265,90.443,31.7,86,32ZM36,72S33.777,86.329,51,85a10.531,10.531,0,0,0,4.654,10H19L9,79l22-8.359A47.421,47.421,0,0,0,36,72ZM86,85a46.558,46.558,0,0,0,10.472-.528L112,100l1,14-15-2L82,95H80.542A11.885,11.885,0,0,0,86,85Z"/>
  <path id="Shape_24_copy" data-name="Shape 24 copy" class="cls-2" d="M100.829,67.96H90.64a6.177,6.177,0,0,1,6.114,6.613,5.905,5.905,0,0,1-6.114,6.375H76.375A5.189,5.189,0,0,1,81.469,86.5a5.053,5.053,0,0,1-5.095,5.437H68.223V92H60a5,5,0,0,1-5-5.442A5.134,5.134,0,0,1,60,81H46s-6,.212-6-6.381S46,68,46,68H36s-9-.1-9-9.371S36,49,36,49H46a6.011,6.011,0,0,1-6-6.36A6.351,6.351,0,0,1,46,36H59.167A4.527,4.527,0,0,0,60,36H59.167C57.746,35.883,55,35.078,55,30.594,55,24.547,60,25,60,25H76.375s5.095-.453,5.095,5.589c0,4.48-2.8,5.284-4.246,5.4H76.375a4.7,4.7,0,0,0,.849,0H90.64s6.114,0.3,6.114,6.633-6.114,6.354-6.114,6.354h10.189S110,49.338,110,58.6,100.829,67.96,100.829,67.96Z"/>
</svg>

<svg xmlns="http://www.w3.org/2000/svg" viewBox="0 0 126 126">
<path fill="##de7b6c" d="M51 32s-7.3-1.5-11.7 3L47 10l7 7v6.5c-1.9 1.6-3.2 4.2-3 8.5ZM36 45s-9.1-.2-12.6 10H16l-7-8 27.7-7.6A18 18 0 0 0 36 45Z"/>
<path fill="##de7b6c" d="M86 32s1.4-11.6-12-11h-.2L78 10l17 10v13a19 19 0 0 0-9-1ZM36 72s-2.2 14.3 15 13a10.5 10.5 0 0 0 4.7 10H19L9 79l22-8.4a47.4 47.4 0 0 0 5 1.4Zm50 13a46.6 46.6 0 0 0 10.5-.5L112 100l1 14-15-2-16-17h-1.5A11.9 11.9 0 0 0 86 85Z"/>
<path fill="#fff" d="M100.8 68H90.6a6.2 6.2 0 0 1 6.2 6.6 6 6 0 0 1-6.2 6.3H76.4a5.2 5.2 0 0 1 5 5.6 5 5 0 0 1-5 5.4h-8.2v.1H60a5 5 0 0 1-5-5.4 5.1 5.1 0 0 1 5-5.6H46s-6 .2-6-6.4 6-6.6 6-6.6H36s-9-.1-9-9.4 9-9.6 9-9.6h10a6 6 0 0 1-6-6.4 6.4 6.4 0 0 1 6-6.6h13.2a4.5 4.5 0 0 0 .8 0h-.8c-1.5-.1-4.2-1-4.2-5.4 0-6 5-5.6 5-5.6h16.4s5-.5 5 5.6c0 4.5-2.7 5.3-4.2 5.4h-.8a4.7 4.7 0 0 0 .8 0h13.4s6.2.3 6.2 6.6-6.2 6.4-6.2 6.4h10.2s9.2.3 9.2 9.6-9.2 9.4-9.2 9.4Z"/>
</svg>
